img/ellipse-2.svg

<svg fill="none" height="432" viewBox="0 0 348 432" width="348" xmlns="http://www.w3.org/2000/svg"><path d="m.58767 32.8426c-.218603.8158.265528 1.6543 1.08133 1.8729l13.2943 3.5622c.8158.2186 1.6543-.2656 1.8729-1.0813.2186-.8159-.2655-1.6544-1.0813-1.873l-11.81715-3.1664 3.16638-11.8171c.21861-.8158-.26552-1.6544-1.08134-1.873-.81579-.2186-1.65434.2656-1.87294 1.0814zm227.09333 393.3374c-.218.816.266 1.655 1.082 1.873l13.294 3.562c.816.219 1.654-.265 1.873-1.081.218-.816-.266-1.654-1.081-1.873l-11.818-3.166 3.167-11.817c.218-.816-.266-1.655-1.082-1.873-.815-.219-1.654.265-1.873 1.081zm-224.85158-391.6173c110.10558-63.5692 249.82658-27.59251 312.09958 80.2683l2.649-1.529c-63.147-109.37362-204.76-145.7729-316.27781-81.388zm312.09958 80.2683c62.274 107.861 23.57 246.851-86.535 310.421l1.529 2.648c111.518-64.384 150.802-205.225 87.655-314.598z" fill="#5b57ca"/></svg>

<svg width="348" height="432" viewBox="0 0 348 432" fill="none" xmlns="http://www.w3.org/2000/svg">
<path d="M0.58767 32.8426C0.369067 33.6584 0.853198 34.4969 1.669 34.7155L14.9633 38.2777C15.7791 38.4963 16.6176 38.0121 16.8362 37.1964C17.0548 36.3805 16.5707 35.542 15.7549 35.3234L3.93775 32.157L7.10413 20.3399C7.32274 19.5241 6.83861 18.6855 6.02279 18.4669C5.207 18.2483 4.36845 18.7325 4.14985 19.5483L0.58767 32.8426ZM227.681 426.18C227.463 426.996 227.947 427.835 228.763 428.053L242.057 431.615C242.873 431.834 243.711 431.35 243.93 430.534C244.148 429.718 243.664 428.88 242.849 428.661L231.031 425.495L234.198 413.678C234.416 412.862 233.932 412.023 233.116 411.805C232.301 411.586 231.462 412.07 231.243 412.886L227.681 426.18ZM2.82942 34.5627C112.935 -29.0065 252.656 6.97019 314.929 114.831L317.578 113.302C254.431 3.92838 112.818 -32.4709 1.30019 31.914L2.82942 34.5627ZM314.929 114.831C377.203 222.692 338.499 361.682 228.394 425.252L229.923 427.9C341.441 363.516 380.725 222.675 317.578 113.302L314.929 114.831Z" fill="#5B57CA"/>
</svg>
